X: 1
T: Gabor and Szilvi of Budapest
C: James Gray
R: jig
B: Alex & James Gray "Tweeddale Collection" v.4 #3 p.13, p.42 #1,8
Z: 2017 John Chambers <jc:trillian.mit.edu>
S: PDF via strathspey.org message
N: Tune for Budapest Birl
M: 6/8
L: 1/8
K: D
A |\
"D"D3 DFA | d3 fed | "G"BdB "D/f#"AGF | "Em"GED "A7"CDE |\
"D"D3 DFA | d3 fed | "G"Bdg "A"aec | "A7"edc "D"d2 :|
c/d/ |\
"A"ecB A3 | "Bm"Bdf "Em"g3 | "D"agf "A7"gfe | "Bm"fdB "G"ABd |\
"A"ecB A3 | "Bm"Bdf "Em"g3 | "G"g3 "D"fed | "A7"ecA "G"GBd |]
"A"ecB A3 | "Bm"Bdf "Em"g3 | "G"gdB "D"AGF | "Em"GED "A7"CDE |\
"D"D3 DFA | "G"G3 "Bm"Bdf | "Em"g3 "A"aec | "A7"edc "D"[d2F2] |]
